image/pinterest.svg

<svg width="40" height="40" viewBox="0 0 40 40" fill="none" xmlns="http://www.w3.org/2000/svg">
<path d="M20 0.799805C9.396 0.799805 0.800003 9.39581 0.800003 19.9998C0.800003 30.6038 9.396 39.1998 20 39.1998C30.604 39.1998 39.2 30.6038 39.2 19.9998C39.2 9.39581 30.604 0.799805 20 0.799805ZM21.314 24.5498C20.082 24.4558 19.566 23.8458 18.602 23.2618C18.072 26.0438 17.424 28.7118 15.504 30.1058C14.91 25.8978 16.372 22.7418 17.052 19.3878C15.894 17.4378 17.19 13.5158 19.634 14.4798C22.64 15.6718 17.03 21.7298 20.796 22.4878C24.728 23.2758 26.334 15.6638 23.896 13.1918C20.372 9.61781 13.642 13.1098 14.47 18.2258C14.67 19.4758 15.964 19.8558 14.986 21.5818C12.732 21.0818 12.058 19.3038 12.146 16.9338C12.284 13.0538 15.632 10.3358 18.988 9.9618C23.234 9.4898 27.218 11.5198 27.77 15.5158C28.388 20.0238 25.852 24.9018 21.314 24.5498Z" fill="black"/>
</svg>

<svg width="40" height="40" fill="none" xmlns="http://www.w3.org/2000/svg"><path d="M20 .8C9.396.8.8 9.396.8 20S9.396 39.2 20 39.2 39.2 30.604 39.2 20 30.604.8 20 .8Zm1.314 23.75c-1.232-.094-1.748-.704-2.712-1.288-.53 2.782-1.178 5.45-3.098 6.844-.594-4.208.868-7.364 1.548-10.718-1.158-1.95.138-5.872 2.582-4.908 3.006 1.192-2.604 7.25 1.162 8.008 3.932.788 5.538-6.824 3.1-9.296-3.524-3.574-10.254-.082-9.426 5.034.2 1.25 1.494 1.63.516 3.356-2.254-.5-2.928-2.278-2.84-4.648.138-3.88 3.486-6.598 6.842-6.972 4.246-.472 8.23 1.558 8.782 5.554.618 4.508-1.918 9.386-6.456 9.034Z" fill="#000"/></svg>
